assets/img/microillustration/avatar.svg

<?xml version="1.0" encoding="UTF-8"?>
<svg viewBox="0 0 106 106" version="1.1" xmlns="http://www.w3.org/2000/svg" xmlns:xlink="http://www.w3.org/1999/xlink">
    <title>4. Elements_Microillustrations/Avatar</title>
    <g id="4.-Elements_Microillustrations/Avatar" stroke="none" stroke-width="1" fill="none" fill-rule="evenodd">
        <path d="M52.9990559,11 C76.1954953,11 95,29.804082 95,53 C95,76.195918 76.1954953,95 52.9990559,95 C29.8026165,95 11,76.195918 11,53 C11,29.804082 29.8026165,11 52.9990559,11 Z M52.9991683,16 C32.5642098,16 16,32.5655008 16,53 C16,73.4344992 32.5642098,90 52.9991683,90 C73.4341268,90 90,73.4344992 90,53 C90,32.5655008 73.4341268,16 52.9991683,16 Z" id="Combined-Shape" fill="#0059C4"></path>
        <circle id="Oval" fill="#DFF0FF" cx="53" cy="53" r="33"></circle>
        <path d="M45.6986443,54.5714286 L60.0437568,54.5714286 C61.5354999,54.5714286 62.8006235,55.6674896 63.0131537,57.1440154 L63.5066602,60.5725868 C63.742714,62.2125394 62.6046291,63.7333431 60.9646765,63.9693969 C60.823117,63.9897729 60.6802817,64 60.5372633,64 L45.3350079,64 C43.6781537,64 42.3350079,62.6568542 42.3350079,61 C42.3350079,60.8943098 42.3405931,60.7886935 42.3517402,60.6835928 L42.7153765,57.2550214 C42.8772052,55.7292082 44.1642732,54.5714286 45.6986443,54.5714286 Z M57.9285714,47.5 C57.9285714,50.5375607 55.4660768,53 52.4284478,53 C49.3908188,53 46.9285714,50.5375607 46.9285714,47.5 C46.9285714,44.4624393 49.3908188,42 52.4284478,42 C55.4660768,42 57.9285714,44.4624393 57.9285714,47.5" id="Rectangle-2" fill="#000000"></path>
    </g>
</svg>

<?xml version="1.0" encoding="UTF-8"?>
<svg version="1.1" viewBox="0 0 106 106" xmlns="http://www.w3.org/2000/svg">
<title>4. Elements_Microillustrations/Avatar</title>
<g fill-rule="evenodd">
<path d="m52.999 11c23.196 0 42.001 18.804 42.001 42s-18.805 42-42.001 42-41.999-18.804-41.999-42 18.803-42 41.999-42zm1.124e-4 5c-20.435 0-36.999 16.566-36.999 37s16.564 37 36.999 37 37.001-16.566 37.001-37-16.566-37-37.001-37z" fill="#0059C4"/>
<circle cx="53" cy="53" r="33" fill="#DFF0FF"/>
<path d="m45.699 54.571h14.345c1.4917 0 2.7569 1.0961 2.9694 2.5726l0.49351 3.4286c0.23605 1.64-0.90203 3.1608-2.542 3.3968-0.14156 0.020376-0.28439 0.030603-0.42741 0.030603h-15.202c-1.6569 0-3-1.3431-3-3 0-0.10569 0.0055852-0.21131 0.016732-0.31641l0.36364-3.4286c0.16183-1.5258 1.4489-2.6836 2.9833-2.6836zm12.23-7.0714c0 3.0376-2.4625 5.5-5.5001 5.5s-5.4999-2.4624-5.4999-5.5 2.4622-5.5 5.4999-5.5 5.5001 2.4624 5.5001 5.5"/>
</g>
</svg>
